projects/flag-game/flags/Sierra Leone.svg

<svg viewBox="0 0 1000 667" xmlns="http://www.w3.org/2000/svg" xmlns:xlink="http://www.w3.org/1999/xlink"><clipPath id="a"><path d="m0 444h1000v222.71875h-1000zm0 0"/></clipPath><path d="m0 0h1000v222.222656h-1000zm0 0" fill="#1eb53a" fill-rule="evenodd"/><path d="m0 222.222656h1000v222.222656h-1000zm0 0" fill="#fff" fill-rule="evenodd"/><g clip-path="url(#a)"><path d="m0 444.445312h1000v222.222657h-1000zm0 0" fill="#0072c6" fill-rule="evenodd"/></g></svg>

<?xml version="1.0" encoding="UTF-8"?>
<svg xmlns="http://www.w3.org/2000/svg" xmlns:xlink="http://www.w3.org/1999/xlink" viewBox="0 0 1000 667" version="1.1">
<defs>
<clipPath id="clip1">
  <path d="M 0 444 L 1000 444 L 1000 666.71875 L 0 666.71875 Z M 0 444 "/>
</clipPath>
</defs>
<g id="surface1060">
<path style=" stroke:none;fill-rule:evenodd;fill:rgb(11.764526%,70.979309%,22.744751%);fill-opacity:1;" d="M 0 0 L 1000 0 L 1000 222.222656 L 0 222.222656 Z M 0 0 "/>
<path style=" stroke:none;fill-rule:evenodd;fill:rgb(99.998474%,99.998474%,99.998474%);fill-opacity:1;" d="M 0 222.222656 L 1000 222.222656 L 1000 444.445312 L 0 444.445312 Z M 0 222.222656 "/>
<g clip-path="url(#clip1)" clip-rule="nonzero">
<path style=" stroke:none;fill-rule:evenodd;fill:rgb(0%,44.7052%,77.645874%);fill-opacity:1;" d="M 0 444.445312 L 1000 444.445312 L 1000 666.667969 L 0 666.667969 Z M 0 444.445312 "/>
</g>
</g>
</svg>
